img/image/catalogue-value-black4.svg

<svg width="16" height="16" viewBox="0 0 16 16" fill="none" xmlns="http://www.w3.org/2000/svg">
<g opacity="0.6">
<path d="M2.40203 4.29291H1.15984C0.993906 4.29291 0.859375 4.15838 0.859375 3.99244V0.534844C0.859375 0.368906 0.993906 0.234375 1.15984 0.234375H2.40203C2.56797 0.234375 2.7025 0.368906 2.7025 0.534844V3.99247C2.70247 4.15838 2.56797 4.29291 2.40203 4.29291Z" stroke="#0B101A" stroke-width="0.5" stroke-miterlimit="10" stroke-linecap="round" stroke-linejoin="round"/>
<path d="M6.45822 1.88175H3.49059V2.6455H6.48259M0.859375 0.773969L1.24525 0.945969M0.859375 1.70975L1.24525 1.88175M0.859375 2.6455L1.24525 2.81753M0.859375 3.58128L1.24525 3.75331M2.70247 0.773969L2.31659 0.945969M2.70247 1.70975L2.31659 1.88175M2.70247 2.6455L2.31659 2.81753M2.70247 3.58128L2.31659 3.75331M2.70247 1.47922H3.49059V3.04803H2.70247V1.47922ZM13.598 4.29291H14.8402C15.0061 4.29291 15.1406 4.15838 15.1406 3.99244V0.534844C15.1406 0.368906 15.0061 0.234375 14.8402 0.234375H13.598C13.432 0.234375 13.2975 0.368906 13.2975 0.534844V3.99247C13.2975 4.15838 13.432 4.29291 13.598 4.29291Z" stroke="#0B101A" stroke-width="0.5" stroke-miterlimit="10" stroke-linecap="round" stroke-linejoin="round"/>
<path d="M13.2975 3.04803H12.5093V1.47922H13.2975V3.04803Z" stroke="#0B101A" stroke-width="0.5" stroke-miterlimit="10" stroke-linecap="round" stroke-linejoin="round"/>
<path d="M9.53219 1.88177H12.5094V2.64552H9.53219M15.1406 0.773987L14.7548 0.945987M15.1406 1.70977L14.7548 1.88177M15.1406 2.64552L14.7548 2.81755M15.1406 3.5813L14.7548 3.75333M13.2975 0.773987L13.6834 0.945987M13.2975 1.70977L13.6834 1.88177M13.2975 2.64552L13.6834 2.81755M13.2975 3.5813L13.6834 3.75333M2.40203 15.7656H1.15984C0.993906 15.7656 0.859375 15.6311 0.859375 15.4652V12.0076C0.859375 11.8416 0.993906 11.7071 1.15984 11.7071H2.40203C2.56797 11.7071 2.7025 11.8416 2.7025 12.0076V15.4652C2.70247 15.6311 2.56797 15.7656 2.40203 15.7656Z" stroke="#0B101A" stroke-width="0.5" stroke-miterlimit="10" stroke-linecap="round" stroke-linejoin="round"/>
<path d="M0.859375 12.2467L1.24525 12.4187M0.859375 13.1825L1.24525 13.3545M0.859375 14.1182L1.24525 14.2902M0.859375 15.054L1.24525 15.226M2.70247 12.2467L2.31659 12.4187M2.70247 13.1825L2.31659 13.3545M2.70247 14.1182L2.31659 14.2902M2.70247 15.054L2.31659 15.226M2.70247 12.952H3.49059V14.5208H2.70247V12.952ZM13.598 15.7656H14.8402C15.0061 15.7656 15.1406 15.6311 15.1406 15.4652V12.0076C15.1406 11.8416 15.0061 11.7071 14.8402 11.7071H13.598C13.432 11.7071 13.2975 11.8416 13.2975 12.0076V15.4652C13.2975 15.6311 13.432 15.7656 13.598 15.7656Z" stroke="#0B101A" stroke-width="0.5" stroke-miterlimit="10" stroke-linecap="round" stroke-linejoin="round"/>
<path d="M13.2975 14.5208H12.5093V12.9519H13.2975V14.5208Z" stroke="#0B101A" stroke-width="0.5" stroke-miterlimit="10" stroke-linecap="round" stroke-linejoin="round"/>
<path d="M15.1406 12.2467L14.7548 12.4187M15.1406 13.1824L14.7548 13.3544M15.1406 14.1182L14.7548 14.2902M15.1406 15.054L14.7548 15.226M13.2975 12.2467L13.6834 12.4187M13.2975 13.1824L13.6834 13.3544M13.2975 14.1182L13.6834 14.2902M13.2975 15.054L13.6834 15.226M8.48976 10.3864V13.3544H7.51026V10.3864M7.51026 6.31307V3.37651H8.48976V6.31307M7.82454 8.36547H8.17548M7.82454 9.11007H8.17548M7.78841 2.0371H8.2116M11.0719 14.1182H12.5094V13.3544H3.4906V14.1182H10.1656M6.75682 9.00744V10.0788C6.75682 10.149 6.7847 10.2163 6.83432 10.2659C6.88394 10.3156 6.95124 10.3434 7.02141 10.3434H8.97863C9.04881 10.3434 9.11611 10.3156 9.16573 10.2659C9.21535 10.2163 9.24323 10.149 9.24323 10.0788V7.71101C9.24323 7.63679 9.21207 7.56601 9.15732 7.51588L8.98785 7.36069C8.96078 7.3359 8.93917 7.30576 8.92438 7.27216C8.90959 7.23857 8.90195 7.20227 8.90194 7.16557V6.65213C8.90194 6.58196 8.87407 6.51466 8.82445 6.46503C8.77483 6.41541 8.70753 6.38754 8.63735 6.38754H7.36263C7.32789 6.38754 7.29348 6.39438 7.26138 6.40768C7.22927 6.42097 7.20011 6.44046 7.17554 6.46503C7.15097 6.4896 7.13148 6.51877 7.11818 6.55087C7.10488 6.58298 7.09804 6.61738 7.09804 6.65213V7.16557C7.09804 7.23979 7.06688 7.31057 7.01213 7.36069L6.84266 7.51588C6.8156 7.54067 6.79398 7.57082 6.77919 7.60441C6.7644 7.638 6.75676 7.6743 6.75676 7.71101V8.10119M7.54688 0.697693H7.17629C7.1039 0.697692 7.03326 0.719876 6.97387 0.761256C6.91448 0.802637 6.8692 0.861226 6.84413 0.92913L6.53835 1.75732C6.52386 1.79658 6.51644 1.83809 6.51644 1.87994V3.02241C6.51644 3.21797 6.67498 3.37647 6.87054 3.37647H9.12954C9.3251 3.37647 9.4836 3.21794 9.4836 3.02241V1.87997C9.4836 1.83813 9.47619 1.7966 9.46169 1.75735L9.15591 0.929162C9.13084 0.861257 9.08557 0.802668 9.02618 0.761288C8.96679 0.719907 8.89614 0.697723 8.82376 0.697724H8.45313" stroke="#0B101A" stroke-width="0.5" stroke-miterlimit="10" stroke-linecap="round" stroke-linejoin="round"/>
</g>
</svg>

<svg width="16" height="16" fill="none" xmlns="http://www.w3.org/2000/svg"><g opacity=".6" stroke="#0B101A" stroke-width=".5" stroke-miterlimit="10" stroke-linecap="round" stroke-linejoin="round"><path d="M2.402 4.293H1.16a.3.3 0 0 1-.3-.3V.534a.3.3 0 0 1 .3-.3h1.242a.3.3 0 0 1 .3.3v3.457a.3.3 0 0 1-.3.3Z"/><path d="M6.458 1.882H3.491v.764h2.992M.859.774l.386.172M.86 1.71l.386.172m-.386.764.386.172M.86 3.58l.386.172M2.702.774l-.385.172m.385.764-.385.172m.385.764-.385.172m.385.763-.385.172m.385-2.274h.789v1.569h-.789V1.479Zm10.896 2.814h1.242a.3.3 0 0 0 .3-.3V.534a.3.3 0 0 0-.3-.3h-1.242a.3.3 0 0 0-.3.3v3.457a.3.3 0 0 0 .3.3ZM13.297 3.048h-.788V1.479h.788v1.569Z"/><path d="M9.532 1.882h2.977v.764H9.532M15.141.774l-.386.172m.386.764-.386.172m.386.764-.386.172m.386.763-.386.172M13.297.774l.386.172m-.386.764.386.172m-.386.764.386.172m-.386.763.386.172M2.402 15.766H1.16a.3.3 0 0 1-.3-.3v-3.458a.3.3 0 0 1 .3-.3h1.242a.3.3 0 0 1 .3.3v3.457a.3.3 0 0 1-.3.3Z"/><path d="m.86 12.247.385.172m-.386.763.386.172m-.386.764.386.172m-.386.764.386.172m1.457-2.98-.385.173m.385.763-.385.172m.385.764-.385.172m.385.764-.385.172m.385-2.274h.789v1.569h-.789v-1.569Zm10.896 2.814h1.242a.3.3 0 0 0 .3-.3v-3.458a.3.3 0 0 0-.3-.3h-1.242a.3.3 0 0 0-.3.3v3.457a.3.3 0 0 0 .3.3ZM13.297 14.52h-.788v-1.568h.788v1.569Z"/><path d="m15.14 12.247-.385.172m.386.763-.386.172m.386.764-.386.172m.386.764-.386.172m-1.458-2.98.386.173m-.386.763.386.172m-.386.764.386.172m-.386.764.386.172m-5.193-4.84v2.968h-.98v-2.968m0-4.073V3.377h.98v2.936m-.665 2.052h.35m-.35.745h.35m-.387-7.073h.424m2.86 12.081h1.437v-.764H3.491v.764h6.675m-3.41-5.11v1.07a.265.265 0 0 0 .265.265H8.98a.264.264 0 0 0 .264-.264V7.71a.265.265 0 0 0-.086-.195l-.17-.155a.265.265 0 0 1-.085-.195v-.514a.265.265 0 0 0-.265-.264H7.363a.265.265 0 0 0-.265.264v.514a.264.264 0 0 1-.086.195l-.17.155a.265.265 0 0 0-.085.195v.39m.79-7.403h-.37a.354.354 0 0 0-.333.231l-.306.828a.354.354 0 0 0-.022.123v1.142c0 .196.159.354.355.354H9.13a.354.354 0 0 0 .354-.354V1.88a.354.354 0 0 0-.022-.123L9.156.93a.354.354 0 0 0-.332-.231h-.37"/></g></svg>
